src/assets/icons/realtime-dashboard/operators-icon.svg

<?xml version="1.0" encoding="UTF-8"?>
<svg width="22px" height="26px" viewBox="0 0 22 26" version="1.1" xmlns="http://www.w3.org/2000/svg" xmlns:xlink="http://www.w3.org/1999/xlink">
    <!-- Generator: Sketch 63.1 (92452) - https://sketch.com -->
    <title>ic_operators@2x</title>
    <desc>Created with Sketch.</desc>
    <g id="Page-1" stroke="none" stroke-width="1" fill="none" fill-rule="evenodd">
        <g id="11" transform="translate(-447.000000, -191.000000)">
            <g id="ic_operators" transform="translate(445.000000, 191.000000)">
                <g id="news">
                    <rect id="Rectangle" x="0" y="1" width="26" height="26"></rect>
                    <g id="Group" transform="translate(2.000000, 6.719682)" fill-rule="nonzero">
                        <path d="M2.10705132,0.0222231035 C0.948150224,0.0222231035 0.0086902336,0.960159841 0.0086902336,2.11718188 C0.0086902336,3.27420391 0.948150224,4.21214065 2.10705132,4.21214065 C2.17814861,4.21214065 2.24568849,4.20848754 2.3150579,4.20163795 L2.31521036,0.0327258031 C2.24589177,0.0258762164 2.17819943,0.0222231035 2.10705132,0.0222231035 Z" id="Path" fill="#6C6766"></path>
                        <path d="M19.0341018,0.0222231035 C20.1930029,0.0222231035 21.1324628,0.960159841 21.1324628,2.11718188 C21.1324628,3.27420391 20.1930029,4.21214065 19.0341018,4.21214065 C18.9630045,4.21214065 18.8954646,4.20848754 18.8260952,4.20163795 L18.8259427,0.0327258031 C18.8952613,0.0258762164 18.9629537,0.0222231035 19.0341018,0.0222231035 Z" id="Path" fill="#6C6766"></path>
                        <path d="M20.8962511,19.2803181 C20.0929889,14.3094969 15.7762297,10.5128979 10.5705765,10.5128979 C5.36497416,10.5128979 1.04821496,14.3094969 0.244901963,19.2803181 L20.8962511,19.2803181 Z" id="Path" fill-opacity="0.697716346" fill="#7AB1F6"></path>
                    </g>
                    <circle id="Oval" fill-opacity="0.697716346" fill="#7AB1F6" fill-rule="nonzero" cx="12.5447316" cy="8.8389662" r="6.71968191"></circle>
                    <path d="M12.544757,13.0775348 L5.06037772,13.0775348 C4.90321726,13.0775348 4.75928493,12.989987 4.68714069,12.8507462 C4.04516893,11.6118889 3.70576541,10.2165888 3.70576541,8.81575761 C3.70576541,3.95466125 7.67095097,0 12.544757,0 C17.4185631,0 21.3836978,3.95466125 21.3836978,8.81565613 C21.3836978,10.2165888 21.0443452,11.6119397 20.4023225,12.8507462 C20.295836,13.0564105 20.0422628,13.1369915 19.8362091,13.0305819 C19.6300536,12.9243246 19.5493111,12.6714686 19.6558993,12.4659565 C20.2448568,11.3296016 20.5434057,10.101502 20.5434057,8.81575761 C20.5434057,4.41683507 16.9552221,0.838134061 12.544757,0.838134061 C8.13429198,0.838134061 4.54610838,4.41678433 4.54610838,8.81565613 C4.54610838,10.0163541 4.80649921,11.166765 5.32056504,12.2392336 L12.544757,12.2393351 C12.7768091,12.2393351 12.9649031,12.4269346 12.9649031,12.6583767 C12.9649031,12.8898188 12.7768091,13.0775348 12.544757,13.0775348 Z" id="Path" fill="#484B7F" fill-rule="nonzero"></path>
                </g>
            </g>
        </g>
    </g>
</svg>

<?xml version="1.0" encoding="UTF-8"?>
<svg version="1.1" viewBox="0 0 22 26" xmlns="http://www.w3.org/2000/svg">
<title>ic_operators@2x</title>
<desc>Created with Sketch.</desc>
<g fill="none" fill-rule="evenodd">
<g transform="translate(-447 -191)">
<g transform="translate(445 191)">
<rect y="1" width="26" height="26"/>
<g transform="translate(2 6.7197)" fill-rule="nonzero">
<path id="Path" d="m2.1071 0.022223c-1.1589 0-2.0984 0.93794-2.0984 2.095 0 1.157 0.93946 2.095 2.0984 2.095 0.071097 0 0.13864-0.0036531 0.20801-0.010503l1.5246e-4 -4.1689c-0.069319-0.0068496-0.13701-0.010503-0.20816-0.010503z" fill="#6C6766"/>
<path id="Path" d="m19.034 0.022223c1.1589 0 2.0984 0.93794 2.0984 2.095 0 1.157-0.93946 2.095-2.0984 2.095-0.071097 0-0.13864-0.0036531-0.20801-0.010503l-1.525e-4 -4.1689c0.069319-0.0068496 0.13701-0.010503 0.20816-0.010503z" fill="#6C6766"/>
<path id="a" d="m20.896 19.28c-0.80326-4.9708-5.12-8.7674-10.326-8.7674-5.2056 0-9.5224 3.7966-10.326 8.7674h20.651z" fill="#7AB1F6" fill-opacity=".69772"/>
</g>
<circle cx="12.545" cy="8.839" r="6.7197" fill="#7AB1F6" fill-opacity=".69772" fill-rule="nonzero"/>
<path d="m12.545 13.078h-7.4844c-0.15716 0-0.30109-0.087548-0.37324-0.22679-0.64197-1.2389-0.98138-2.6342-0.98138-4.035 0-4.8611 3.9652-8.8158 8.839-8.8158 4.8738 0 8.8389 3.9547 8.8389 8.8157 0 1.4009-0.33935 2.7963-0.98138 4.0351-0.10649 0.20566-0.36006 0.28625-0.56611 0.17984-0.20616-0.10626-0.2869-0.35911-0.18031-0.56463 0.58896-1.1364 0.88751-2.3645 0.88751-3.6502 0-4.3989-3.5882-7.9776-7.9986-7.9776-4.4105 0-7.9986 3.5787-7.9986 7.9775 0 1.2007 0.26039 2.3511 0.77446 3.4236l7.2242 1.015e-4c0.23205 0 0.42015 0.1876 0.42015 0.41904s-0.18809 0.41916-0.42015 0.41916z" fill="#484B7F" fill-rule="nonzero"/>
</g>
</g>
</g>
</svg>
